X:1
T:Title
%%score { ( 1 4 ) | ( 2 3 ) }
L:1/8
Q:1/4=100
M:3/4
K:Db
V:1 treble nm="Grand Piano"
V:4 treble 
V:2 bass 
V:3 bass 
V:1
 F2 G2 [B,_F=G]2 | [FA]4 [DA]2 | G2- [GB]2 [EGc]2 | d2- [Dd-]2 [Fd]2 | d2 c2 [DGB]2 | %5
w: Ira~D.~Sankey * *|||||
 [DFA]4 [A,DF]2 | A2 z2 z2 | [DF]2 z2 z2 | F2 G2 [B,_F=G]2 | [FA]4 [DA]2 | G2- [GB]2 c2 | d6 | %12
w: |||||||
 e2 d2 B2 | z2 z2 [Dd]2 | F4[K:bass] z2 | [F,D]6 |] %16
w: ||||
V:2
 D2 E2 D,2 | z2 D2 F,2 | z2 D2 A,2 | z2 F,2 A,2 | [G,G]2- [G,CG]2 G,2 | D,4 D,2 | z2 G2 D,2 | %7
 z2 C4 | D2 E2 D,2 | z2 D2 F,2 | z2[K:treble] D2 [A,EG]2 | D4[K:bass] z2 | [G,B,G]4 [G,DG]2 | %13
 [D,D]4 [F,A,]G, | A,4 z2 | D,6 |] %16
V:3
 [D,A,]4 z2 | D,4 z2 | A,4 z2 | D,6 | B,2 z2 z2 | x6 | C,4 z2 | A,,6 | [D,A,]4 z2 | D,4 z2 | %10
 A,4[K:treble] z2 | [B,F]2[K:bass] F,2 [D,_C]2 | x6 | x6 | z2 B,2 A,,2 | x6 |] %16
V:4
 x6 | A,2 z2 z2 | [CA]2 z2 z2 | [DF]2 z2 z2 | x6 | x6 | [A,E]4 [A,DF]2 | A,2- [A,E]4 | x6 | %9
 A,2 z2 z2 | [CA]2 z2 z2 | z2 A2 F2 | x6 | [FA]4 z B, | D2 z2[K:bass] [G,CE]2 | x6 |] %16

